X: 20128
T: Jimmy's Return
R: reel
M: 4/4
K: Bminor
|:f2Bc dfed|cAeA aece|f2Bc dfed|caec dBB2|
f2Bc dfed|cAce aecA|BcdB cdeg|faec dBBA:|
|:B2ba faed|cAeA aecA|B2ba faed|caec dBBA|
B2ba faed|cAeA aecA|BcdB cdeg|faec dBB2:|

